src/images/svg/vk.svg

<svg width="24" height="24" viewBox="0 0 24 24" fill="none" xmlns="http://www.w3.org/2000/svg">
<path d="M12 0C5.37253 0 3.05176e-05 5.3725 3.05176e-05 12C3.05176e-05 18.6275 5.37253 24 12 24C18.6275 24 24 18.6275 24 12C24 5.3725 18.6275 0 12 0ZM16.615 13.5388C16.615 13.5388 17.6763 14.5863 17.9375 15.0725C17.945 15.0825 17.9488 15.0925 17.9513 15.0975C18.0575 15.2762 18.0825 15.415 18.03 15.5188C17.9425 15.6913 17.6425 15.7763 17.54 15.7838H15.665C15.535 15.7838 15.2625 15.75 14.9325 15.5225C14.6788 15.345 14.4288 15.0538 14.185 14.77C13.8213 14.3475 13.5063 13.9825 13.1888 13.9825C13.1485 13.9824 13.1084 13.9888 13.07 14.0013C12.83 14.0788 12.5225 14.4212 12.5225 15.3337C12.5225 15.6187 12.2975 15.7825 12.1388 15.7825H11.28C10.9875 15.7825 9.46378 15.68 8.11378 14.2563C6.46128 12.5125 4.97378 9.015 4.96128 8.9825C4.86753 8.75625 5.06128 8.635 5.27253 8.635H7.16628C7.41878 8.635 7.50128 8.78875 7.55878 8.925C7.62628 9.08375 7.87378 9.715 8.28003 10.425C8.93878 11.5825 9.34253 12.0525 9.66628 12.0525C9.72699 12.0518 9.78661 12.0363 9.84003 12.0075C10.2625 11.7725 10.1838 10.2662 10.165 9.95375C10.165 9.895 10.1638 9.28 9.94753 8.985C9.79253 8.77125 9.52878 8.69 9.36878 8.66C9.43354 8.57064 9.51886 8.49818 9.61753 8.44875C9.90753 8.30375 10.43 8.2825 10.9488 8.2825H11.2375C11.8 8.29 11.945 8.32625 12.1488 8.3775C12.5613 8.47625 12.57 8.7425 12.5338 9.65375C12.5225 9.9125 12.5113 10.205 12.5113 10.55C12.5113 10.625 12.5075 10.705 12.5075 10.79C12.495 11.2537 12.48 11.78 12.8075 11.9963C12.8502 12.023 12.8996 12.0373 12.95 12.0375C13.0638 12.0375 13.4063 12.0375 14.3338 10.4463C14.6198 9.93407 14.8684 9.40185 15.0775 8.85375C15.0963 8.82125 15.1513 8.72125 15.2163 8.6825C15.2643 8.65804 15.3174 8.6456 15.3713 8.64625H17.5975C17.84 8.64625 18.0063 8.6825 18.0375 8.77625C18.0925 8.925 18.0275 9.37875 17.0113 10.755L16.5575 11.3538C15.6363 12.5613 15.6363 12.6225 16.615 13.5388Z" fill="#333333"/>
</svg>

<svg width="24" height="24" fill="none" xmlns="http://www.w3.org/2000/svg"><path d="M12 0a12 12 0 1 0 0 24 12 12 0 0 0 0-24Zm4.61 13.54a11 11 0 0 0 1.33 1.53l.01.03c.1.18.13.31.08.42-.09.17-.39.26-.49.26h-1.88c-.13 0-.4-.03-.73-.26-.25-.17-.5-.47-.74-.75-.37-.42-.68-.79-1-.79-.04 0-.08 0-.12.02-.24.08-.55.42-.55 1.33 0 .29-.22.45-.38.45h-.86c-.3 0-1.82-.1-3.17-1.52-1.65-1.75-3.14-5.24-3.15-5.28-.1-.22.1-.35.31-.35h1.9c.25 0 .33.16.39.3.07.15.31.79.72 1.5.66 1.15 1.06 1.62 1.39 1.62.06 0 .12-.01.17-.04.42-.24.34-1.74.32-2.06 0-.05 0-.67-.21-.96a.93.93 0 0 0-.58-.33.69.69 0 0 1 .25-.21c.29-.15.81-.17 1.33-.17h.29c.56.01.7.05.9.1.42.1.43.36.4 1.27-.02.26-.03.55-.03.9v.24c-.02.46-.03.99.3 1.2.04.03.09.05.14.05.11 0 .46 0 1.38-1.6.29-.5.54-1.04.75-1.59.02-.03.07-.13.14-.17.04-.02.1-.03.15-.03h2.23c.24 0 .4.03.44.13.05.15-.01.6-1.03 1.98l-.45.6c-.92 1.2-.92 1.26.05 2.18Z" fill="#333"/></svg>
